!!!COM: Ce/cile Chaminade
!!!CNT: Francais
!!!TXO: Francais
!!!OTL: "Souhait"
!!!LYR: Vanor, Georges
!!!ENC: Amanda Harris
!!!YOR: Album of Songs, Volume 1
!!!YOR: Da Capo Press
!!!ODT: 1886/
!!NB: Vocal melody and text encoded
**kern	**silbe
*clefG2	*
*k[]	*
*M4/4	*
*MM[allegretto]	*
=5	=5
{4a	{Si
8g	quel-
8g	-que
8a	bon-
8a	-ne
8e	fe/e
8e	a-
=6	=6
8g	-vait
8g	cou-
8c	-su
8c	des
4d	ai-
8e}	-les}
8r	.
=7	=7
{8a	{A
8a	mon
4cc	dos
8b	fa-
8b	-ti-
8e	-gue/
8e	du
=8	=8
8f#	far-
8f#	-deau
8g#	du
8g#	mal-
2e}	-heur,}
=9	=9
{4gn	{Je
8fn	n'i-
8f	-rais
4e	pas
8d	|
8r	.
=10	=10
8c	ain-
8d	|
8e	-si
8f	que
8g	ces
8a	pa-
8b	-pil-
8dd	-lons
=11	=11
4g	fre^-
4b-	|
2a}	-les}
=12	=12
{4d	{Me
4e	ber-
4a	-cer
8f	dans
8d	le
=13	=13
8c	doux
8d	ca-
8e	-li-
8f	-ce
4g	de
8b	la
8dd	|
=14	=14
2cc}	fleur.}
2r	.
=16	=16
{4e	{Rem-
8b	-pli
8b	d'un
8e	seul
8e	de'-
8B	-sir,
8B	j'ou-
=17	=17
8e	-blie-
8e	-rais
12f	dans
12g	|
12a	ma
4b	cour-
8e}	-se}
8r	.
=18	=18
{4g	{Les
8dd	ar-
8dd	-bres
8g	pleins
8g	de
8d	nids
8d	qui
=19	=19
8g	char-
8g	-ment
12a	les
12b-	|
12cc	che-
4dd}	-mins,}
8r	.
! NB: Rest is missing in score, but implied from context	!
{8a	{Du
=20	=20
[2ee	doux
8ee]	|
8e	ga-
12e	-zouil-
12g#	|
12b	-le-
=21	=21
[2dd	-ment
8dd]	|
8d	des
12d	oi-
12f#	|
12a	|
=22	=22
[2cc	-seaux,
8cc]}	|}
8r	.
{8a	{et
8a	la
=23	=23
4.a	source
8a	Ou\
8a	boi-
8g	-vent
8a	les
8b-	en-
=24	=24
[1cc	-fants
=25	=25
8cc]	|
8r	.
8a	dans
8cc	le
4b	creux
8a	de
8b	leurs
=26	=26
4e}	mains.}
4r	.
2r	.
=28	=28
{8e	{Loin
8e	des
4b	ble/s
8e	so-
8e	-leil-
8B	-le/s
8B	qu'un
=29	=29
8e	ma-
8e	-tin
12f	d'or
12g	|
12a	ar-
4b	-ro-
4e}	se,}
=30	=30
{4g	{Sans
8dd	m'e/-
8dd	-ni-
8g	-vrer
8g	joy-
8d	-eux
8d	a\
=31	=31
8g	l'ur-
8g	-ne
12a	d'un
12b	|
12cc	lys
2dd}	blanc,}
=32	=32
{8cc	{Sans
8cc	po-
8b	-ser
8b	mon
8a	le'-
8a	-ger
4g	pied
=33	=33
8f	sur
8f	la
8e	ro-
8e	-se,
4a	ro-
4e}	-se,}
=34	=34
{2g	{Loin
8f	des
8g	co-
8a	-que-
8a	-li-
=35	=35
4cc	-cots
2g}	|}
4r	.
=36	=36
{4.e	{je
8e	pren-
4f	-drais
8a	mon
8cc	e/-
=37	=37
1ee}	-lan.}
=38	=38
{8a	{J'ac-
8a	-cou-
4g	-rais,
8a	lu-
8a	-tin
8e	bleu,
8e	vers
=39	=39
8g	toi,
8g	d'ou\
8c	tout
8c	ray-
4d	-on-
8e}	-ne}
8r	.
=40	=40
{8a	{Sur
8a	tes
4cc	le\-
8b	vres
8b	en
8e	fleurs
8e	je
=41	=41
8f#	sau-
8f#	-rais
8g#	me
8g#	po-
4.e}	-ser,}
{8e	{Puis
=42	=42
8gn	je
8g	m'en-
8b-	-vo-
8b-	-le-
4.a	-rais
8e	de
=43	=43
8g	ta
8g	bou-
8b-	-che
8b-	mi-
8a	-gnon-
8g	|
8fn}	-ne}
{8d	{A-
=44	=44
8d	-yant
8e	bu
8f	ton
8a	ha-
8ee	-leine
8dd	et
8a	cueil-
8bn	-li
=45	=45
4cc	ton
4b	bai-
2a}	-ser.}
*-	*-
